!!!!SEGMENT: pl-kk--kk-i-10--018-001_leszczynski-wladyslaw--missa-per-octavas-kyrie.krn
!!!id: 16xx:1211
!!!COM: Leszczyński, Władysław
!!!COM-rism: pe30025416
!!!CDT: 1616-1680
!!!CNT: Polish
!!!OTL: Missa per octavas – Kyrie
!!!PDT:
!!!SMS-siglum: PL-Kk
!!!SMS-shelfmark: Kk.I.10
!!!NIFC-rismID: 1001153984
!!!URL-scan: http://repozytorium.nifc.pl/skany/pl-kk-nut--i-10
!!!ONB-nifc: UWAGA: Części Mszy: 1. Kyrie, 2. Et in terra, 3. Sanctus, 4. Agnus Dei.
!!!SMS-variant:
!!!SMS-altvar:
**kern	**text	**kern	**text	**kern	**text
*part3	*part3	*part2	*part2	*part1	*part1
*staff3	*staff3	*staff2	*staff2	*staff1	*staff1
*I"Bassus.	*	*I"Tenor	*	*I"Altus.	*
*I'B	*	*I'T	*	*I'A	*
*clefF4	*	*clefC4	*	*clefC1	*
*k[]	*	*k[]	*	*k[]	*
*M2/1	*	*M2/1	*	*M2/1	*
*met(C)	*	*met(C)	*	*met(C)	*
*all\right	*	*all\right	*	*all\right	*
=1-	=1-	=1-	=1-	=1-	=1-
1AA	Ky-	0rA	.	00r	.
2C#X/	-ri-	.	.	.	.
2D/	-e	.	.	.	.
=2-	=2-	=2-	=2-	=2-	=2-
2D/	e-	1rA	.	.	.
2Cny/	.	.	.	.	.
*2\right	*	*	*	*	*
2D\	.	1A	Ky-	.	.
2F\	.	.	.	.	.
=3-	=3-	=3-	=3-	=3-	=3-
*	*	*2\right	*	*	*
!	!	!LO:TX:a:t=P:problem:# above	!	!	!
2E\	.	2c#X\	-ri-	0ra	.
2D/	.	2d\	-e	.	.
2G\	.	2d\	e-	.	.
2A\	.	2c#X\	.	.	.
=4-	=4-	=4-	=4-	=4-	=4-
2B-X\	.	2d\	.	2r	.
*	*	*	*	*2\right	*
2A\	.	2f\	.	2a\	Ky-
2G\	.	2e\	.	2cc\	-ri-
2F\	.	4d\	.	2dd\	-e
.	.	4A\	.	.	.
!	!	!LO:LB:g=original	!	!	!
=5-	=5-	=5-	=5-	=5-	=5-
1E	-ley-	2B\	.	2dd\	[e]-
.	.	4A/	.	2cc#X\	.
.	.	4G/	.	.	.
1D	-ſon	1.A	.	2dd\	.
.	.	.	.	2ff\	.
=6-	=6-	=6-	=6-	=6-	=6-
0r	.	.	.	2ee\	.
.	.	4G/	.	2dd\	.
.	.	4F/	.	.	.
.	.	2G/	.	1ee	.
.	.	2.A/	.	.	.
=7-	=7-	=7-	=7-	=7-	=7-
1D	Ky-	.	.	2dd\	.
.	.	4G/	.	.	.
.	.	4F/	.	2a\	-ley-
.	.	4E/	.	.	.
2F\	-ri-	2D/	.	1a	-ſon
2A\	-e	2A/	.	.	.
=8-	=8-	=8-	=8-	=8-	=8-
2A\	e-	2F/	.	0r	.
2G\	.	2E/	.	.	.
!LO:LB:g=original	!	!	!	!	!
1F	.	1A	.	.	.
=9-	=9-	=9-	=9-	=9-	=9-
2G\	.	2B\	.	1e	Ky-
2A\	.	2.cny\	.	.	.
2G\	.	.	.	2g\	-ri-
.	.	4B\	.	.	.
2F\	.	2A/	.	2a\	-e
=10-	=10-	=10-	=10-	=10-	=10-
2.E\	.	2c\	.	2a\	e-
.	.	2.B\	.	2g\	.
4D/	.	.	.	.	.
2C/	.	.	.	2a\	.
.	.	4A/	.	.	.
4BB/	.	1A/	.	2ccny\	.
4AA/	.	.	.	.	.
!	!	!	!	!LO:LB:g=original	!
=11-	=11-	=11-	=11-	=11-	=11-
2D\	.	.	.	2b\	.
2E\	.	2G/	.	2.b\	.
1F	.	2.A\	.	.	.
.	.	.	.	4a\	.
*	*	*	*	*lig	*
.	.	.	.	1a\	.
.	.	4B\	.	.	.
!	!	!LO:LB:g=original	!	!	!
=12-	=12-	=12-	=12-	=12-	=12-
2.E\	.	2c\	.	.	.
.	.	2B\	.	1g	.
4D/	.	.	.	.	.
2C/	.	1A	.	.	.
*	*	*	*	*Xlig	*
2D/	.	.	.	2f/	.
=13-	=13-	=13-	=13-	=13-	=13-
0AA	ley-	0A	-ley-	0e	-ley-
=14-	=14-	=14-	=14-	=14-	=14-
0Dl;;	-ſon	0Al;;	-ſon	0f#Xl;;	-ſon
=15||-	=15||-	=15||-	=15||-	=15||-	=15||-
*M2/1	*	*M2/1	*	*M2/1	*
*met(C)	*	*met(C)	*	*met(C)	*
!LO:TX:a:t=Chriſte\nTacet	!	!LO:TX:a:t=a3	!	!LO:TX:a:t=a3	!
0ryy	.	1A	Chry-	00r	.
.	.	2A\	-ſte	.	.
.	.	2G/	e-	.	.
=16-	=16-	=16-	=16-	=16-	=16-
0ryy	.	2A\	.	.	.
.	.	2B-X\	.	.	.
.	.	2.A/	.	.	.
.	.	4G/	.	.	.
=17-	=17-	=17-	=17-	=17-	=17-
0ryy	.	4F/	.	2r	.
.	.	4E/	.	.	.
.	.	2D/	.	2a\	Chri-
.	.	1E	.	2a\	-ſte
.	.	.	.	2g\	e-
=18-	=18-	=18-	=18-	=18-	=18-
0ryy	.	2F/	.	2a\	.
.	.	2G/	.	2b-X\	.
.	.	1A	.	2.a\	.
.	.	.	.	4g/	.
=19-	=19-	=19-	=19-	=19-	=19-
0ryy	.	1B-X	.	2fny/	.
.	.	.	.	2g\	.
.	.	2A/	.	2a\	.
.	.	2E/	.	2g/	.
!	!	!	!	!LO:PB:g=original	!
=20-	=20-	=20-	=20-	=20-	=20-
0ryy	.	2F/	.	2a\	.
.	.	2B-X\	.	2f/	.
.	.	2G/	.	2g/	.
!	!	!LO:TX:b:t=P:problem:# below	!	!	!
.	.	2F#X/	.	2a\	.
=21-	=21-	=21-	=21-	=21-	=21-
0ryy	.	0G	-ley-	0b-X	-ley-
!	!	!LO:LB:g=original	!	!	!
=22-	=22-	=22-	=22-	=22-	=22-
0ryy	.	0Dl;;	-ſon	0al;;	-ſon
!LO:PB:g=original	!	!	!	!	!
=23||-	=23||-	=23||-	=23||-	=23||-	=23||-
!	!	!LO:TX:a:t=a3	!	!LO:TX:a:t=Chriſte\nTacet	!
1D	Chri-	0r	.	0ryy	.
2D/	-ſte	.	.	.	.
2C/	e	.	.	.	.
=24-	=24-	=24-	=24-	=24-	=24-
2D\	e-	1r	.	0ryy	.
2E-X\	.	.	.	.	.
2D/	.	1A	Chri-	.	.
2C/	.	.	.	.	.
=25-	=25-	=25-	=25-	=25-	=25-
1BB-X	.	2A/	-ſte	0ryy	.
.	.	2G/	e-	.	.
2AA/	.	2A/	.	.	.
4GG/	.	1B-X\	.	.	.
4AA/	.	.	.	.	.
=26-	=26-	=26-	=26-	=26-	=26-
4BB-X/	.	.	.	0ryy	.
4C/	.	.	.	.	.
2D\	.	4A/	.	.	.
.	.	4G/	.	.	.
1AA	.	4Fny/	.	.	.
.	.	4G/	.	.	.
.	.	2E/	.	.	.
=27-	=27-	=27-	=27-	=27-	=27-
2BB-X/	.	2D/	.	0ryy	.
2C/	.	2G/	.	.	.
2D/	.	2F/	.	.	.
2Eny\	.	2B-X\	.	.	.
=28-	=28-	=28-	=28-	=28-	=28-
1F	.	2A\	.	0ryy	.
.	.	1d	.	.	.
2G\	.	.	.	.	.
2A\	.	2c\	.	.	.
=29-	=29-	=29-	=29-	=29-	=29-
1B-X	.	1.d	.	0ryy	.
!LO:LB:g=original	!	!	!	!	!
2A\	.	.	.	.	.
2G\	.	4e\	.	.	.
.	.	4Bny\	.	.	.
=30-	=30-	=30-	=30-	=30-	=30-
2A\	.	2c\	.	0ryy	.
4D/	.	4d\	.	.	.
4C/	.	4A/	.	.	.
!	!	!LO:PB:g=original	!	!	!
0BB-X	.	2A/	.	.	.
.	.	4G/	.	.	.
.	.	4F/	.	.	.
=31-	=31-	=31-	=31-	=31-	=31-
.	.	1G	.	0ryy	.
1AA	-ley-	2A/	.	.	.
.	.	1d\	.	.	.
=32-	=32-	=32-	=32-	=32-	=32-
0Dl;;	-ſon	.	.	0ryy	.
.	.	4c#y\	ley-	.	.
.	.	4B\	.	.	.
.	.	1c#Xl;;	-ſon	.	.
=33||-	=33||-	=33||-	=33||-	=33||-	=33||-
*M2/1	*	*M2/1	*	*M2/1	*
*met(C)	*	*met(C)	*	*met(C)	*
00r	.	0r	.	00r	.
=34-	=34-	=34-	=34-	=34-	=34-
.	.	1A	Ky-	.	.
.	.	2G/	-ri-	.	.
.	.	2F/	-e	.	.
=35-	=35-	=35-	=35-	=35-	=35-
00r	.	2G/	e-	1ra	.
.	.	4F/	.	.	.
.	.	4E/	.	.	.
.	.	2F/	.	1a	Ky-
.	.	4E/	.	.	.
.	.	4D/	.	.	.
=36-	=36-	=36-	=36-	=36-	=36-
.	.	2G/	.	2g/	-ri-
.	.	2D/	.	2f/	-e
.	.	2G/	.	2g/	.
.	.	2A/	ley-	4f/	.
.	.	.	.	4e/	.
=37-	=37-	=37-	=37-	=37-	=37-
1D	Ky-	1D	-ſon	2f/	.
.	.	.	.	4e/	.
.	.	.	.	4d/	.
2C/	-ri-	0r	.	2e/	.
*	*	*	*	*lig	*
2BBny/	-e	.	.	1g/	.
=38-	=38-	=38-	=38-	=38-	=38-
2C/	e-	.	.	.	.
4BB/	.	.	.	1a	.
4AA/	.	.	.	.	.
2D\	.	1r	.	.	.
*	*	*	*	*Xlig	*
2E\	.	.	.	4g/	.
.	.	.	.	4f/	.
!	!	!LO:LB:g=original	!	!LO:LB:g=original	!
=39-	=39-	=39-	=39-	=39-	=39-
*lig	*	*	*	*	*
1F	ley-	2r	.	2e/	e-
.	.	2d\	Ky-	1a	-ley-
1E	.	2cny\	-ri-	.	.
.	.	2B\	-e	2g#X/	.
*Xlig	*	*	*	*	*
=40-	=40-	=40-	=40-	=40-	=40-
1AA	-ſon	2c\	e-	1a	-ſon
.	.	2d\	.	.	.
0rD	.	2G/	.	2r	.
*	*	*	*	*	*ij
.	.	2B-X\	.	2dd\	Ky-
=41-	=41-	=41-	=41-	=41-	=41-
.	.	2A/	.	2cc\	.
.	.	2G/	.	2bny\	-ri-
2r	.	1F	.	2cc\	-e
2A\	Ky-	.	.	4b\	e-
.	.	.	.	4a\	.
=42-	=42-	=42-	=42-	=42-	=42-
2G\	-ri-	2E/	.	4b\	.
.	.	.	.	4cc#X\	.
2F\	-e	2D/	.	1dd	-ley-
!LO:LB:g=original	!	!	!	!	!
2G\	e-	1E	-ley-	.	.
4F\	.	.	.	2cc#X\	.
4E\	.	.	.	.	.
=43-	=43-	=43-	=43-	=43-	=43-
2F\	.	1D	-ſon	1dd	-ſon
*	*	*	*	*	*Xij
4E\	.	.	.	.	.
4D\	.	.	.	.	.
2G\	.	0rA	.	2rb	.
2A\	.	.	.	2ee\	Ky-
=44-	=44-	=44-	=44-	=44-	=44-
2D/	.	.	.	2dd\	-ri-
2AA/	-ley-	.	.	2ccny\	-e
1D	-ſon	1rA	.	2dd\	.
.	.	.	.	4cc\	.
.	.	.	.	4b\	.
=45-	=45-	=45-	=45-	=45-	=45-
1r	.	1e	Ky-	2cc\	.
.	.	.	.	2.b\	.
2rF	.	2d\	-ri-	.	.
.	.	.	.	4a\	.
2A\	Ky-	2c\	-e	2a\	ley-
=46-	=46-	=46-	=46-	=46-	=46-
1G	-ri-	2d\	e-	1b	-ſon
.	.	1e	.	.	.
!	!	!	!	!LO:LB:g=original	!
1F	-e	.	.	2r	.
.	.	2d\	.	2a\	Ky-
=47-	=47-	=47-	=47-	=47-	=47-
2E\	e-	2G/	.	1gny	-ri-
4D/	.	1A	.	.	.
4C/	.	.	.	.	.
2D/	.	.	.	1f	-e
4C/	.	2Bny\	.	.	.
4BB/	.	.	.	.	.
=48-	=48-	=48-	=48-	=48-	=48-
2AA/	.	1c	.	2e/	.
2C/	.	.	.	2ee\	.
!	!	!LO:LB:g=original	!	!	!
1D	.	2B\	.	1dd	.
.	.	2A/	.	.	.
=49-	=49-	=49-	=49-	=49-	=49-
2E\	.	2G/	.	2cc\	.
*	*	*	*	*lig	*
2F\	.	2A/	.	1dd	.
2G\	.	2B\	.	.	.
2A\	.	2e\	.	1cc\	.
*	*	*	*	*Xlig	*
!LO:LB:g=original	!	!	!	!	!
=50-	=50-	=50-	=50-	=50-	=50-
2F\	.	1d	-ley-	.	.
2G\	.	.	.	1b	.
2E\	.	1c	-ſon	.	.
2F\	.	.	.	2a\	.
=51-	=51-	=51-	=51-	=51-	=51-
1C	.	2rc	.	1cc	.
.	.	2e\	Ky-	.	.
*	*	*	*	*lig	*
2D/	.	2d\	-ri-	1a	.
2AA/	.	2c\	-e	.	.
=52-	=52-	=52-	=52-	=52-	=52-
2BB/	.	2d\	e-	1g	.
*	*	*lig	*	*Xlig	*
2C/	.	1c	.	.	.
2AA/	.	.	.	2a\	.
2BB-X/	.	1d\	.	2f/	e-
*	*	*Xlig	*	*	*
=53-	=53-	=53-	=53-	=53-	=53-
0AA	-ley-	.	.	0a	-ley-
.	.	4c#X\	.	.	.
.	.	4B\	.	.	.
.	.	1c#X	-ley-	.	.
=54-	=54-	=54-	=54-	=54-	=54-
0Dl;;	-ſon	0dl;;	-ſon	0al;;	-ſon
==	==	==	==	==	==
*-	*-	*-	*-	*-	*-
!!!system-decoration: [(s1,s2,s3)]
!!!RDF**kern: > = above
!!!RDF**kern: < = below
!!!RDF**kern: l = terminal long
!!!ENC: Andrzej Kubiczek
!!!END: 2021-07-14
!!!ENC: Marcin Jachim
!!!END: 2021-07-06
